packages/icons/src/SVG/double-chevron-right.svg

<svg width="12" height="12" viewBox="0 0 12 12" fill="none" xmlns="http://www.w3.org/2000/svg">
<path d="M0.5 1.59893L4.80751 6L0.5 10.4011L1.49208 11.5L7 6L1.49208 0.5L0.5 1.59893Z" fill="#4C505B"/>
<path d="M5 1.59893L9.30751 6L5 10.4011L5.99208 11.5L11.5 6L5.99208 0.5L5 1.59893Z" fill="#4C505B"/>
</svg>

<!-- Generated by IcoMoon.io -->
<svg version="1.1" xmlns="http://www.w3.org/2000/svg" width="12" height="12" viewBox="0 0 12 12">
<title>double-chevron-right</title>
<path d="M0.5 1.599l4.308 4.401-4.308 4.401 0.992 1.099 5.508-5.5-5.508-5.5-0.992 1.099z"></path>
<path d="M5 1.599l4.308 4.401-4.308 4.401 0.992 1.099 5.508-5.5-5.508-5.5-0.992 1.099z"></path>
</svg>
